X: 19853
T: Jesse's
R: jig
M: 6/8
K: Amajor
a|:"A"aec "D"afd|"E" edc BAB|"A"aec "D"afd|"A"cde "E"B2 a|
"A"aec "D"afd|"A" aec "Bm"BAF|EFA "E" B2e|1 "E"edB "A" A2 a/a/:|2 "E"edB "A" A2E|
|:"A"EAA "E"EBB|"A" Ece "Bm"dcB|"A"EAA "E"EBc|"A"dec "E"B2 E|
"A"EAA "E"EBB|"A" Ecd "E"efg|"A"aec "Bm"fdB|1 "E"ede "A"A2 z:|2 "E"ede "A"a2a/a/||

